X:1
T:Exodus Wounds
T:Exodus Wounds (WIP)
T:War for the Planet of the Apes
T:Music by Michael Giacchino Arranged and Edited by Midiraptor
C:Michael Giacchino
%%score { 1 | 2 }
L:1/8
Q:1/4=66
M:4/4
K:Bb
V:1 bass nm="Violoncello" snm="Vc."
V:2 bass 
V:1
!p! z"^caldamente con dolore" B,B,B, B,A,A,A, | A,G,G,G, G,4 | z2 z B, B,B,B,A, | %3
 A,A,A,G, G,G, G,2- | G,2 z2 z B,B,B, | B,A,A,A, A,G,G,G, | G,4 z4 | z A,A,A, A,G,G,G, | %8
 G,F,F,F, F,4 | z4 z B,B,B, | B,A,A,A, A,G,G,G, | G,4 z2 z B, | B,B,B,A, A,A,A,G, | G,G, G,4 z2 | %14
 z B,B,B, B,A,A,A, | A,G,G,G, G,4 | z2 z A, A,A,A,G, | G,G,G,F, F,F, F,2- | %18
 F,2 z2[K:bass]!mp! D,,4- | D,,8- | D,,2 z2 G,4- | G,8- | G,2 z2 D4- | D8- | D2 z2 A,4- | %25
 A,4 F2 F2 | F2 F2 [CF]2 c2 |!ff! z"^drammatico con espressione" BBB BAAA | AGGG G2 z2 | %29
 z BBB BAAA | AGGG G2 z2 | z BBB BAAA | AGGG G2 z2 | z AAA AGGG | GFFF F4 | %35
!p! z"^dolce" B,B,B, B,A,A,A, | A,G,G,G, G,4 | z B,B,B, B,A,A,A, | A,G,G,G, G,4 | %39
 z B,B,B, B,A,A,A, | A,G,G,G, G,4 | z A,A,A, A,G,G,G, | G,F,F,F, F,4 |[Q:1/4=54] C,4 E,4 | %44
 E,4 G,4 | D,4 F,4 | =E,8 |!mf! C,4 E,4 | E,4 B,4 | C4 B,4 | =E,4 C4 | =E,,4 G,,4 | B,,4 A,,4 | %53
[M:3/4][Q:1/4=106] z4!ff! G,2 |"^agitato" C2 =B,2 G,2 | _C2 B,2 G,2 | B,2 A,2 z2 | z4 G,2 | %58
 C2 =B,2 G,2 | _C2 B,2 G,2 | B,2 A,2 z2 | z4 G,2 | A,2 =B,2 C2 | A,2 =B,2 C2 | A,2 G,2 z2 | %65
 z4 G,2 | C2 =B,2 G,2 | _C2 B,2 G,2 | B,2 A,2 z2 | z6 | z6 | C,2 G,2 G,2 | C,2 G,2 G,2 | %73
 C,2 G,2 G,2 | C,2 G,2 G,2 | !fermata!C,6 |] %76
V:2
!pp! D,8- | D,8 | z2 E,6- | E,8 | z4 D,4- | D,8- | D,4 z4 | C,8- | C,8 | z4 G,,D,G,B, | D8- | %11
 D2 z4 E,,B,, | E,G, B,6- | B,4 z4 | B,,F,B,D F4- | F8 | z2 F,,C, F,A, C2- | C8- | %18
 C2 z2!mp! G,,4- | G,,8- | G,,2 z2 E,,4- | E,,8- | E,,2 z2 B,,4- | B,,8- | B,,2 z2 F,,4- | %25
 F,,4 [F,,C]2 F,,2 |!<(! [F,,C]2 F,,2 F,,F,,F,,F,,!<)! |!f! G,,D,G,B, DB,G,B, | G,,D,G,B, DB,G,B, | %29
 E,,B,,E,G, B,G,E,G, | E,,B,,E,G, B,G,E,G, | B,,F,B,D FDB,D | B,,F,B,D FDB,D | F,,C,F,A, CA,F,A, | %34
!>(! F,,C,F,A, CA,F,A,!>)! |!pp! D8- | D8 | E8- | E8 | D8- | D8 | C8- | C8 | C2 E2 C2 E2 | %44
 E2 G2 E2 G2 | D2 F2 D2 F2 | A,2 C2 A,2 C2 |!mp! C,G,CE GECE | E,B,EG BGEG | z G,,C,F, B,F,C,F, | %50
 A,,=E,A,C =ECA,C | C,,C,,C,,C,, C,,C,,C,,C,, |!<(! C,,C,,C,,C,, C,,C,,C,,C,,!<)! | %53
[M:3/4]!f! (3:2:2C,,2 C,, C,,2 z2 | C,,2 E,2 E,2 | C,,2 E,2 E,2 | C,,2 E,2 E,2 | C,,2 E,2 E,2 | %58
 [C,,C,]2 E,2 E,2 | C,,2 E,2 E,2 | C,,2 E,2 E,2 | C,,2 E,2 E,2 | C,,2 E,2 E,2 | C,,2 E,2 E,2 | %64
 C,,2 E,2 E,2 | C,,2 E,2 E,2 | C,,2 E,2 E,2 | C,,2 E,2 E,2 | C,,2 E,2 E,2 | C,,2 E,2 E,2 | %70
 C,,2 E,2 E,2 | C,,2 E,2 E,2 | C,,2 E,2 E,2 | C,,2 E,2 E,2 | C,,2 E,2 E,2 | !fermata!C,,6 |] %76

